app/images/icons/user.svg

<svg width="14" height="16" viewBox="0 0 14 16" fill="none" xmlns="http://www.w3.org/2000/svg">
<path d="M7 8C6.27083 8 5.60417 7.82292 5 7.46875C4.39583 7.11458 3.90625 6.625 3.53125 6C3.17708 5.375 3 4.70833 3 4C3 3.29167 3.17708 2.625 3.53125 2C3.90625 1.375 4.39583 0.885417 5 0.53125C5.60417 0.177083 6.27083 0 7 0C7.72917 0 8.39583 0.177083 9 0.53125C9.60417 0.885417 10.0938 1.375 10.4688 2C10.8229 2.625 11 3.29167 11 4C11 4.70833 10.8229 5.375 10.4688 6C10.0938 6.625 9.60417 7.11458 9 7.46875C8.39583 7.82292 7.72917 8 7 8ZM5.5625 9.5H8.4375C10 9.54167 11.3125 10.0833 12.375 11.125C13.4167 12.1875 13.9583 13.5 14 15.0625C14 15.3333 13.9062 15.5521 13.7188 15.7188C13.5521 15.9062 13.3333 16 13.0625 16H0.9375C0.666667 16 0.447917 15.9062 0.28125 15.7188C0.09375 15.5521 0 15.3333 0 15.0625C0.0416667 13.5 0.583333 12.1875 1.625 11.125C2.6875 10.0833 4 9.54167 5.5625 9.5Z" fill="#212126"/>
</svg>

<svg width="14" height="16" fill="none" xmlns="http://www.w3.org/2000/svg"><path d="M7 8c-.73 0-1.396-.177-2-.531A4.134 4.134 0 013.531 6 3.993 3.993 0 013 4c0-.708.177-1.375.531-2A4.134 4.134 0 015 .531 3.882 3.882 0 017 0c.73 0 1.396.177 2 .531A4.134 4.134 0 0110.469 2c.354.625.531 1.292.531 2s-.177 1.375-.531 2A4.134 4.134 0 019 7.469 3.882 3.882 0 017 8zM5.562 9.5h2.875c1.563.042 2.876.583 3.938 1.625 1.042 1.063 1.583 2.375 1.625 3.938 0 .27-.094.49-.281.656a.836.836 0 01-.656.281H.937a.836.836 0 01-.656-.281.836.836 0 01-.281-.656c.042-1.563.583-2.876 1.625-3.938C2.688 10.083 4 9.542 5.563 9.5z" fill="#212126"/></svg>
